X: 5
T: Cronin's Jig
S: Jimmy Doyle
M: 12/8
L: 1/8
R: jig
K: Ador
|: ABc AGE | c2 B c2 d | efg edB | g2 g gfg |
eaf g/a/ge | d/e/dB G2 A | B/c/Be dBG |[1 A2 B c/d/cB :|[2 ABA ABd ||
|: e2 a age | dgg gfg | eab age- | egg gfg |
eae g/a/ge | d/e/dB G2 A |[1 ABA ABd :|[2 A2 B c2 B |]
